X: 23656
T: Limerick, The
R: slide
M: 12/8
K: Gmajor
|:DEF GAB e2^c A2G|FAF EAE DFA d2A|DEF GAB e2^c A2G|FAF DEF G3 G3:|
BdB {Bc}B2A BdB {Bc}B2A|~G3 BAG A2G E2D|BcB {Bc}B2A BcB {Bc}B2A|GFE FED B3 B3|
DEF GAB e2^c A2G|FAF EAE DFA d2A|DEF GAB e2^c A2G|FAF DEF G3 G3|

